;FLAVOR:Marlin
;TIME:7789
;Filament used: 7.30845m
;Layer height: 0.2
;MINX:2.501
;MINY:2.588
;MINZ:0.2
;MAXX:82.252
;MAXY:81.703
;MAXZ:39.2
;TARGET_MACHINE.NAME:Creality Ender-3 V3 SE
;Generated with Cura_SteamEngine 5.8.1
M82 ;absolute extrusion mode
M220 S100 ;Reset Feedrate
M221 S100 ;Reset Flowrate

G28 ;Home

M420 S1; Use saved mesh leveling data

G92 E0 ;Reset Extruder
G1 Z2.0 F3000 ;Move Z Axis up
G1 X-3 Y20 Z0.28 F5000.0 ;Move to start position
M190 S65 ; Set bed temperature and wait
M109 S205.0 ; Set hotend temperature and wait
G1 X-3 Y100.0 Z0.28 F1500.0 E15 ;Draw the first line
G1 X-2 Y100.0 Z0.28 F5000.0 ;Move to side a little
G1 X-2 Y20 Z0.28 F1500.0 E30 ;Draw the second line
G92 E0 ;Reset Extruder
G1 E-1.0000 F1800 ;Retract a bit
G1 Z2.0 F3000 ;Move Z Axis up
G1 E0.0000 F1800 

G92 E0
G92 E0
G1 F2400 E-0.8
;LAYER_COUNT:195
;LAYER:0
M107
G1 F300 Z0.4
G0 F9000 X10.199 Y19.876 Z0.4
;TYPE:SKIRT
G1 F300 Z0.2
G1 F2400 E0
G1 F1800 X14.753 Y18.6 E0.1573
G1 X16.96 Y18.438 E0.2309
G1 X17.781 Y18.668 E0.25926
G1 X18.019 Y18.112 E0.27938
G1 X19.562 Y16.114 E0.36334
G1 X21.604 Y14.538 E0.44913
G1 X23.966 Y13.562 E0.53414
G1 X25.651 Y13.339 E0.59067
G1 X28.435 Y13.313 E0.68327
G1 X29.391 Y10.055 E0.7962
G1 X30.282 Y8.341 E0.86045
G1 X33.392 Y5.055 E1.01093
G1 X35.335 Y3.887 E1.08633
G1 X39.392 Y2.75 E1.22647
G1 X41.599 Y2.588 E1.30007
G1 X45.995 Y3.818 E1.4519
G1 X47.965 Y4.842 E1.52574
G1 X51.038 Y8.096 E1.6746
G1 X52.062 Y9.706 E1.73807
G1 X53.121 Y13.32 E1.86332
G1 X57.599 Y13.364 E2.01227
G1 X59.124 Y13.581 E2.0635
G1 X61.515 Y14.573 E2.1496
G1 X63.497 Y16.104 E2.2329
G1 X63.907 Y16.636 E2.25524
G1 X65.541 Y16.18 E2.31166
G1 X67.746 Y16.018 E2.3852
G1 X72.617 Y17.381 E2.55343
G1 X74.587 Y18.405 E2.62728
G1 X77.999 Y22.016 E2.79251
G1 X79.028 Y23.634 E2.85629
G1 X80.421 Y28.386 E3.02099
G1 X80.423 Y30.738 E3.09922
G1 X79.137 Y35.345 E3.25831
G1 X78.166 Y37.184 E3.32747
G1 X74.838 Y40.441 E3.48235
G1 X75.002 Y41 E3.50173
G1 X75.023 Y41.159 E3.50706
G1 X76.887 Y41.93 E3.57415
G1 X79.143 Y43.648 E3.66847
G1 X80.866 Y45.898 E3.76273
G1 X81.983 Y48.59 E3.85966
G1 X82.252 Y51.008 E3.94058
G1 X82.19 Y61.42 E4.28689
G1 X81.941 Y63.203 E4.34677
G1 X80.865 Y65.794 E4.44009
G1 X79.158 Y68.022 E4.53344
G1 X76.894 Y69.757 E4.62831
G1 X74.26 Y70.852 E4.72318
G1 X72.348 Y71.1 E4.78731
G1 X62.743 Y71.138 E5.10678
G1 X61.829 Y74.417 E5.21999
G1 X60.86 Y76.255 E5.2891
G1 X57.987 Y79.07 E5.42288
G1 X56.289 Y80.331 E5.49323
G1 X51.968 Y81.542 E5.64248
G1 X49.684 Y81.703 E5.71864
G1 X45.447 Y80.462 E5.86548
G1 X43.631 Y79.483 E5.9341
G1 X40.552 Y76.404 E6.07892
G1 X39.448 Y74.683 E6.14693
G1 X38.407 Y71.132 E6.27001
G1 X26.399 Y71.073 E6.6694
G1 X24.613 Y70.824 E6.72938
G1 X22.045 Y69.757 E6.82187
G1 X19.758 Y68.002 E6.91775
G1 X18.045 Y65.766 E7.01144
G1 X16.95 Y63.118 E7.10674
G1 X16.687 Y60.748 E7.18605
G1 X16.746 Y50.282 E7.53416
G1 X16.995 Y48.497 E7.5941
G1 X18.069 Y45.912 E7.68721
G1 X18.57 Y45.258 E7.71461
G1 X17.524 Y45.55 E7.75073
G1 X15.24 Y45.711 E7.82688
G1 X10.441 Y44.306 E7.9932
G1 X8.625 Y43.327 E8.06181
G1 X5.102 Y39.804 E8.22753
G1 X3.999 Y38.084 E8.29549
G1 X2.664 Y33.529 E8.45336
G1 X2.501 Y31.189 E8.53138
G1 X3.895 Y26.431 E8.69628
G1 X4.783 Y24.72 E8.7604
G1 X8.271 Y21.034 E8.92918
G1 X10.199 Y19.876 E9.00398
G0 F9000 X10.36 Y20.246
G1 F1800 X14.821 Y18.996 E9.15807
G1 X16.92 Y18.842 E9.22807
G1 X18.011 Y19.148 E9.26576
G1 X18.368 Y18.315 E9.2959
G1 X19.847 Y16.399 E9.37641
G1 X21.805 Y14.888 E9.45867
G1 X24.07 Y13.952 E9.54018
G1 X25.703 Y13.736 E9.59497
G1 X28.736 Y13.71 E9.69585
G1 X29.764 Y10.205 E9.81734
G1 X30.611 Y8.576 E9.8784
G1 X33.646 Y5.369 E10.02526
G1 X35.496 Y4.257 E10.09705
G1 X39.46 Y3.146 E10.23398
G1 X41.559 Y2.992 E10.30398
G1 X45.847 Y4.192 E10.45208
G1 X47.719 Y5.165 E10.52225
G1 X50.72 Y8.342 E10.6676
G1 X51.695 Y9.875 E10.72803
G1 X52.821 Y13.717 E10.86119
G1 X57.543 Y13.76 E11.01825
G1 X59.019 Y13.97 E11.06784
G1 X61.311 Y14.921 E11.15037
G1 X63.212 Y16.389 E11.23026
G1 X63.755 Y17.093 E11.25983
G1 X65.608 Y16.576 E11.32381
G1 X67.706 Y16.422 E11.39378
G1 X72.469 Y17.755 E11.55829
G1 X74.341 Y18.728 E11.62846
G1 X77.684 Y22.266 E11.79035
G1 X78.66 Y23.8 E11.85082
G1 X80.021 Y28.444 E12.01178
G1 X80.023 Y30.684 E12.08628
G1 X78.764 Y35.194 E12.24202
G1 X77.841 Y36.942 E12.30777
G1 X74.387 Y40.323 E12.46853
G1 X74.618 Y41.112 E12.49587
G1 X74.644 Y41.435 E12.50665
G1 X76.689 Y42.281 E12.58026
G1 X78.856 Y43.932 E12.67086
G1 X80.518 Y46.102 E12.76178
G1 X81.591 Y48.687 E12.85487
G1 X81.854 Y51.052 E12.93401
G1 X81.794 Y61.365 E13.27703
G1 X81.552 Y63.098 E13.33523
G1 X80.516 Y65.593 E13.42508
G1 X78.873 Y67.737 E13.51492
G1 X76.693 Y69.408 E13.60628
G1 X74.159 Y70.461 E13.69755
G1 X72.296 Y70.703 E13.76003
G1 X62.439 Y70.739 E14.08788
G1 X61.457 Y74.265 E14.20962
G1 X60.535 Y76.013 E14.27535
G1 X57.707 Y78.784 E14.40704
G1 X56.111 Y79.966 E14.47309
G1 X51.9 Y81.146 E14.61854
G1 X49.728 Y81.299 E14.69096
G1 X45.6 Y80.09 E14.83403
G1 X43.873 Y79.159 E14.89928
G1 X40.866 Y76.152 E15.04072
G1 X39.815 Y74.514 E15.10546
G1 X38.707 Y70.733 E15.2365
G1 X26.454 Y70.677 E15.64404
G1 X24.718 Y70.435 E15.70234
G1 X22.249 Y69.409 E15.79127
G1 X20.044 Y67.717 E15.88371
G1 X18.395 Y65.565 E15.97388
G1 X17.342 Y63.018 E16.06555
G1 X17.085 Y60.704 E16.14299
G1 X17.142 Y50.337 E16.4878
G1 X17.384 Y48.602 E16.54606
G1 X18.417 Y46.116 E16.6356
G1 X19.253 Y45.024 E16.68134
G1 X19.019 Y44.717 E16.69418
G1 X17.456 Y45.154 E16.74816
G1 X15.284 Y45.307 E16.82058
G1 X10.594 Y43.934 E16.98312
G1 X8.867 Y43.003 E17.04838
G1 X5.416 Y39.552 E17.2107
G1 X4.367 Y37.916 E17.27534
G1 X3.06 Y33.457 E17.42988
G1 X2.905 Y31.233 E17.50403
G1 X4.268 Y26.58 E17.6653
G1 X5.111 Y24.956 E17.72616
G1 X8.525 Y21.348 E17.89137
G1 X10.36 Y20.246 E17.96256
G0 F9000 X10.521 Y20.616
G1 F1800 X14.889 Y19.392 E18.11343
G1 X16.88 Y19.246 E18.17983
G1 X18.241 Y19.628 E18.22685
G1 X18.716 Y18.519 E18.26698
G1 X20.132 Y16.684 E18.34407
G1 X22.006 Y15.238 E18.42279
G1 X24.174 Y14.342 E18.50082
G1 X25.755 Y14.133 E18.55386
G1 X29.036 Y14.108 E18.66299
G1 X30.138 Y10.353 E18.79315
G1 X30.939 Y8.812 E18.85091
G1 X33.9 Y5.683 E18.99419
G1 X35.657 Y4.627 E19.06237
G1 X39.528 Y3.542 E19.19609
G1 X41.519 Y3.396 E19.26249
G1 X45.699 Y4.566 E19.40686
G1 X47.473 Y5.488 E19.47335
G1 X50.402 Y8.588 E19.6152
G1 X51.328 Y10.044 E19.67259
G1 X52.521 Y14.115 E19.81369
G1 X57.487 Y14.156 E19.97887
G1 X58.914 Y14.359 E20.02681
G1 X61.105 Y15.268 E20.1057
G1 X62.928 Y16.676 E20.18231
G1 X63.603 Y17.55 E20.21904
G1 X65.675 Y16.972 E20.29059
G1 X67.666 Y16.826 E20.35699
G1 X72.321 Y18.129 E20.51776
G1 X74.095 Y19.051 E20.58426
G1 X77.369 Y22.516 E20.74282
G1 X78.291 Y23.965 E20.79994
G1 X79.621 Y28.503 E20.95722
G1 X79.623 Y30.63 E21.02797
G1 X78.391 Y35.043 E21.18036
G1 X77.516 Y36.7 E21.24268
G1 X74.24 Y39.907 E21.39516
G1 X73.92 Y40.147 E21.40846
G1 X74.222 Y41.184 E21.44439
G1 X74.265 Y41.712 E21.46201
G1 X76.491 Y42.632 E21.54212
G1 X78.569 Y44.216 E21.62902
G1 X80.17 Y46.306 E21.71659
G1 X81.199 Y48.784 E21.80583
G1 X81.456 Y51.096 E21.8832
G1 X81.398 Y61.31 E22.22293
G1 X81.163 Y62.993 E22.27945
G1 X80.167 Y65.392 E22.36584
G1 X78.588 Y67.452 E22.45217
G1 X76.493 Y69.058 E22.53997
G1 X74.056 Y70.071 E22.62774
G1 X72.245 Y70.306 E22.68848
G1 X62.135 Y70.34 E23.02475
G1 X61.085 Y74.113 E23.15501
G1 X60.21 Y75.771 E23.21736
G1 X57.427 Y78.498 E23.34695
G1 X55.932 Y79.601 E23.40874
G1 X51.832 Y80.75 E23.55037
G1 X49.772 Y80.895 E23.61905
G1 X45.753 Y79.718 E23.75834
G1 X44.115 Y78.835 E23.82023
G1 X41.18 Y75.9 E23.95828
G1 X40.183 Y74.346 E24.01969
G1 X39.082 Y70.59 E24.14987
G1 X39.055 Y70.334 E24.15844
G1 X26.509 Y70.281 E24.57572
G1 X24.824 Y70.046 E24.63231
G1 X22.449 Y69.059 E24.71785
G1 X20.331 Y67.434 E24.80664
G1 X18.745 Y65.364 E24.89337
G1 X17.734 Y62.918 E24.9814
G1 X17.483 Y60.66 E25.05697
G1 X17.538 Y50.392 E25.39849
G1 X17.773 Y48.707 E25.45507
G1 X18.766 Y46.317 E25.54115
G1 X19.757 Y45.024 E25.59534
G1 X19.172 Y44.259 E25.62737
G1 X17.388 Y44.758 E25.68898
G1 X15.328 Y44.903 E25.75767
G1 X10.747 Y43.562 E25.91642
G1 X9.109 Y42.679 E25.97832
G1 X5.73 Y39.3 E26.13725
G1 X4.734 Y37.747 E26.19862
G1 X3.456 Y33.386 E26.34976
G1 X3.309 Y31.277 E26.42008
G1 X4.641 Y26.729 E26.5777
G1 X5.439 Y25.192 E26.6353
G1 X8.779 Y21.662 E26.79694
G1 X10.521 Y20.616 E26.86452
G0 F9000 X10.682 Y20.986
G1 F1800 X14.957 Y19.788 E27.01218
G1 X16.84 Y19.65 E27.07498
G1 X18.471 Y20.108 E27.13132
G1 X19.064 Y18.723 E27.18143
G1 X20.417 Y16.969 E27.25511
G1 X22.207 Y15.588 E27.33031
G1 X24.278 Y14.732 E27.40484
G1 X25.807 Y14.53 E27.45614
G1 X29.336 Y14.506 E27.57351
G1 X30.511 Y10.503 E27.71227
G1 X31.268 Y9.047 E27.76685
G1 X34.154 Y5.997 E27.90651
G1 X35.818 Y4.997 E27.97108
G1 X39.596 Y3.938 E28.10158
G1 X41.479 Y3.8 E28.16438
G1 X45.551 Y4.94 E28.30502
G1 X47.227 Y5.811 E28.36784
G1 X50.087 Y8.838 E28.50635
G1 X50.96 Y10.21 E28.56044
G1 X52.124 Y14.182 E28.69811
G1 X52.124 Y14.512 E28.70908
G1 X57.431 Y14.552 E28.8856
G1 X58.809 Y14.748 E28.93189
G1 X60.899 Y15.615 E29.00715
G1 X62.644 Y16.963 E29.08049
G1 X63.451 Y18.008 E29.1244
G1 X65.743 Y17.368 E29.20355
G1 X67.626 Y17.23 E29.26635
G1 X72.173 Y18.503 E29.4234
G1 X73.849 Y19.374 E29.48622
G1 X77.054 Y22.766 E29.64143
G1 X77.922 Y24.13 E29.69521
G1 X79.221 Y28.562 E29.84882
G1 X79.223 Y30.576 E29.9158
G1 X78.018 Y34.892 E30.06484
G1 X77.191 Y36.458 E30.12375
G1 X73.96 Y39.621 E30.27413
G1 X73.458 Y39.99 E30.29485
G1 X73.826 Y41.255 E30.33867
G1 X73.889 Y42.017 E30.3641
G1 X74.038 Y42.051 E30.36918
G1 X76.29 Y42.982 E30.45024
G1 X78.286 Y44.504 E30.53372
G1 X79.821 Y46.507 E30.61765
G1 X80.807 Y48.881 E30.70315
G1 X81.058 Y51.14 E30.77875
G1 X81.002 Y61.255 E31.11518
G1 X80.774 Y62.888 E31.17002
G1 X79.818 Y65.191 E31.25296
G1 X78.303 Y67.167 E31.33577
G1 X76.292 Y68.709 E31.42006
G1 X73.955 Y69.68 E31.50423
G1 X72.193 Y69.909 E31.56333
G1 X61.76 Y69.941 E31.91033
G1 X61.745 Y70.261 E31.92099
G1 X60.712 Y73.962 E32.04879
G1 X59.885 Y75.529 E32.10772
G1 X57.147 Y78.212 E32.23522
G1 X55.754 Y79.236 E32.29272
G1 X51.764 Y80.354 E32.43054
G1 X49.816 Y80.491 E32.49549
G1 X45.906 Y79.346 E32.631
G1 X44.357 Y78.511 E32.68953
G1 X41.494 Y75.648 E32.8242
G1 X40.55 Y74.177 E32.88233
G1 X39.466 Y70.478 E33.01053
G1 X39.428 Y69.935 E33.02864
G1 X26.564 Y69.885 E33.4565
G1 X24.93 Y69.657 E33.51137
G1 X22.649 Y68.709 E33.59353
G1 X20.618 Y67.151 E33.67867
G1 X19.095 Y65.163 E33.76196
G1 X18.126 Y62.818 E33.84635
G1 X17.881 Y60.616 E33.92004
G1 X17.934 Y50.447 E34.25827
G1 X18.162 Y48.812 E34.31318
G1 X19.114 Y46.521 E34.39569
G1 X20.261 Y45.024 E34.45842
G1 X19.326 Y43.801 E34.50962
G1 X17.32 Y44.362 E34.5789
G1 X15.372 Y44.499 E34.64385
G1 X10.9 Y43.19 E34.79883
G1 X9.351 Y42.355 E34.85736
G1 X6.044 Y39.048 E35.01291
G1 X5.102 Y37.579 E35.07095
G1 X3.852 Y33.314 E35.21878
G1 X3.713 Y31.321 E35.28522
G1 X5.014 Y26.878 E35.4392
G1 X5.767 Y25.428 E35.49355
G1 X9.033 Y21.976 E35.6516
G1 X10.682 Y20.986 E35.71558
G0 F9000 X10.843 Y21.356
G1 F1800 X15.025 Y20.184 E35.86003
G1 X16.8 Y20.054 E35.91922
G1 X18.701 Y20.588 E35.9849
G1 X19.412 Y18.927 E36.04499
G1 X20.702 Y17.254 E36.11526
G1 X22.408 Y15.938 E36.18692
G1 X24.382 Y15.122 E36.25796
G1 X25.859 Y14.927 E36.30751
G1 X29.783 Y14.904 E36.43803
G1 X29.755 Y14.5 E36.4515
G1 X30.884 Y10.653 E36.58485
G1 X31.597 Y9.282 E36.63624
G1 X34.408 Y6.311 E36.77228
G1 X35.979 Y5.367 E36.83324
G1 X39.664 Y4.334 E36.96053
G1 X41.439 Y4.204 E37.01972
G1 X45.403 Y5.314 E37.15664
G1 X46.981 Y6.134 E37.21579
G1 X49.772 Y9.088 E37.35095
G1 X50.591 Y10.375 E37.40169
G1 X51.724 Y14.24 E37.53565
G1 X51.725 Y14.909 E37.5579
G1 X57.375 Y14.948 E37.74583
G1 X58.704 Y15.137 E37.79047
G1 X60.695 Y15.963 E37.86217
G1 X62.359 Y17.248 E37.93209
G1 X63.299 Y18.466 E37.98327
G1 X65.811 Y17.764 E38.07002
G1 X67.586 Y17.634 E38.12921
G1 X72.025 Y18.877 E38.28253
G1 X73.603 Y19.697 E38.34168
G1 X76.736 Y23.012 E38.49339
G1 X77.554 Y24.298 E38.54408
G1 X78.821 Y28.621 E38.69391
G1 X78.823 Y30.522 E38.75714
G1 X77.645 Y34.741 E38.90283
G1 X76.866 Y36.216 E38.95831
G1 X73.68 Y39.335 E39.1066
G1 X72.995 Y39.831 E39.13473
G1 X73.43 Y41.326 E39.18652
G1 X73.516 Y42.372 E39.22143
G1 X73.885 Y42.421 E39.23381
G1 X76.089 Y43.332 E39.31313
G1 X78.001 Y44.79 E39.3931
G1 X79.473 Y46.711 E39.47359
G1 X80.415 Y48.978 E39.55525
G1 X80.66 Y51.184 E39.62907
G1 X80.606 Y61.2 E39.96221
G1 X80.385 Y62.783 E40.01537
G1 X79.47 Y64.987 E40.09474
G1 X78.018 Y66.882 E40.17414
G1 X76.089 Y68.36 E40.25497
G1 X73.852 Y69.29 E40.33555
G1 X72.142 Y69.512 E40.3929
G1 X61.359 Y69.542 E40.75154
G1 X61.36 Y70.153 E40.77186
G1 X60.339 Y73.811 E40.89818
G1 X59.56 Y75.287 E40.95369
G1 X56.867 Y77.926 E41.0791
G1 X55.575 Y78.871 E41.13234
G1 X51.696 Y79.958 E41.26632
G1 X49.86 Y80.087 E41.32754
G1 X46.059 Y78.974 E41.45927
G1 X44.599 Y78.187 E41.51443
G1 X41.808 Y75.396 E41.64572
G1 X40.918 Y74.009 E41.70053
G1 X39.862 Y70.406 E41.8254
G1 X39.801 Y69.536 E41.85441
G1 X26.619 Y69.489 E42.29285
G1 X25.035 Y69.268 E42.34604
G1 X22.85 Y68.36 E42.42474
G1 X20.905 Y66.868 E42.50627
G1 X19.445 Y64.962 E42.58613
G1 X18.518 Y62.718 E42.66688
G1 X18.279 Y60.572 E42.7387
G1 X18.33 Y50.502 E43.07363
G1 X18.551 Y48.917 E43.12686
G1 X19.463 Y46.722 E43.20592
G1 X20.785 Y44.997 E43.2782
G1 X20.654 Y44.88 E43.28405
G1 X19.48 Y43.343 E43.34837
G1 X17.252 Y43.966 E43.42532
G1 X15.416 Y44.095 E43.48654
G1 X11.053 Y42.818 E43.63774
G1 X9.593 Y42.031 E43.6929
G1 X6.358 Y38.796 E43.84507
G1 X5.47 Y37.411 E43.89979
G1 X4.248 Y33.242 E44.04428
G1 X4.117 Y31.365 E44.10686
G1 X5.387 Y27.027 E44.2572
G1 X6.096 Y25.661 E44.30839
G1 X9.285 Y22.292 E44.46268
G1 X10.843 Y21.356 E44.52314
G0 F9000 X11.004 Y21.726
G1 F1800 X15.093 Y20.58 E44.66438
G1 X16.76 Y20.458 E44.71997
G1 X18.96 Y21.076 E44.79597
G1 X18.998 Y20.91 E44.80164
G1 X19.76 Y19.131 E44.86601
G1 X20.987 Y17.539 E44.93286
G1 X22.609 Y16.288 E45.00099
G1 X24.486 Y15.512 E45.06854
G1 X25.911 Y15.324 E45.11635
G1 X30.211 Y15.302 E45.25937
G1 X30.159 Y14.545 E45.28461
G1 X31.257 Y10.803 E45.41431
G1 X31.926 Y9.517 E45.46253
G1 X34.662 Y6.625 E45.59494
G1 X36.14 Y5.737 E45.65229
G1 X39.732 Y4.73 E45.77637
G1 X41.399 Y4.608 E45.83196
G1 X45.255 Y5.688 E45.96515
G1 X46.735 Y6.457 E46.02062
G1 X49.457 Y9.338 E46.15245
G1 X50.222 Y10.54 E46.19983
G1 X51.324 Y14.299 E46.33012
G1 X51.325 Y15.307 E46.36365
G1 X57.319 Y15.344 E46.56301
G1 X58.599 Y15.526 E46.60601
G1 X60.489 Y16.31 E46.67407
G1 X62.075 Y17.535 E46.74072
G1 X63.147 Y18.924 E46.79908
G1 X65.879 Y18.16 E46.89343
G1 X67.546 Y18.038 E46.94902
G1 X71.877 Y19.251 E47.09862
G1 X73.357 Y20.02 E47.15409
G1 X76.421 Y23.262 E47.30246
G1 X77.185 Y24.463 E47.3498
G1 X78.421 Y28.68 E47.49596
G1 X78.423 Y30.468 E47.55543
G1 X77.272 Y34.59 E47.69777
G1 X76.541 Y35.974 E47.74983
G1 X73.445 Y39.011 E47.89407
G1 X72.532 Y39.672 E47.93156
G1 X73.034 Y41.397 E47.99132
G1 X73.143 Y42.727 E48.0357
G1 X73.78 Y42.811 E48.05707
G1 X75.888 Y43.682 E48.13293
G1 X77.716 Y45.076 E48.20939
G1 X79.124 Y46.914 E48.2864
G1 X80.023 Y49.077 E48.36431
G1 X80.262 Y51.228 E48.43629
G1 X80.21 Y61.145 E48.76614
G1 X79.996 Y62.678 E48.81762
G1 X79.121 Y64.786 E48.89353
G1 X77.733 Y66.597 E48.96942
G1 X75.888 Y68.011 E49.04674
G1 X73.751 Y68.899 E49.12371
G1 X72.09 Y69.115 E49.17942
G1 X60.959 Y69.143 E49.54964
G1 X60.96 Y70.099 E49.58143
G1 X59.966 Y73.66 E49.7044
G1 X59.235 Y75.045 E49.75649
G1 X56.587 Y77.64 E49.8798
G1 X55.399 Y78.505 E49.92868
G1 X51.628 Y79.562 E50.05894
G1 X49.904 Y79.683 E50.11642
G1 X46.212 Y78.602 E50.24437
G1 X44.841 Y77.863 E50.29617
G1 X42.122 Y75.144 E50.42407
G1 X41.286 Y73.841 E50.47556
G1 X40.258 Y70.334 E50.59711
G1 X40.174 Y69.137 E50.63702
G1 X26.674 Y69.093 E51.08603
G1 X25.141 Y68.879 E51.13752
G1 X23.05 Y68.01 E51.21283
G1 X21.19 Y66.583 E51.2908
G1 X19.796 Y64.764 E51.36703
G1 X18.91 Y62.618 E51.44425
G1 X18.677 Y60.528 E51.51419
G1 X18.726 Y50.557 E51.84583
G1 X18.94 Y49.022 E51.89738
G1 X19.812 Y46.923 E51.97298
G1 X21.186 Y45.13 E52.04811
G1 X21.394 Y44.953 E52.05719
G1 X20.972 Y44.637 E52.07473
G1 X19.772 Y43.067 E52.14045
