;FLAVOR:Marlin
;TIME:1604
;Filament used: 1.78619m
;Layer height: 0.2
;MINX:15.276
;MINY:25.027
;MINZ:0.2
;MAXX:63.876
;MAXY:79.285
;MAXZ:11.2
;TARGET_MACHINE.NAME:Creality Ender-3 V3 SE
;Generated with Cura_SteamEngine 5.8.1
M82 ;absolute extrusion mode
M220 S100 ;Reset Feedrate
M221 S100 ;Reset Flowrate

G28 ;Home

M420 S1; Use saved mesh leveling data

G92 E0 ;Reset Extruder
G1 Z2.0 F3000 ;Move Z Axis up
G1 X-3 Y20 Z0.28 F5000.0 ;Move to start position
M190 S65 ; Set bed temperature and wait
M109 S205.0 ; Set hotend temperature and wait
G1 X-3 Y100.0 Z0.28 F1500.0 E15 ;Draw the first line
G1 X-2 Y100.0 Z0.28 F5000.0 ;Move to side a little
G1 X-2 Y20 Z0.28 F1500.0 E30 ;Draw the second line
G92 E0 ;Reset Extruder
G1 E-1.0000 F1800 ;Retract a bit
G1 Z2.0 F3000 ;Move Z Axis up
G1 E0.0000 F1800 

G92 E0
G92 E0
G1 F2400 E-0.8
;LAYER_COUNT:55
;LAYER:0
M107
G1 F300 Z0.4
G0 F9000 X36.795 Y28.05 Z0.4
;TYPE:SKIRT
G1 F300 Z0.2
G1 F2400 E0
G1 F1800 X38.356 Y26.591 E0.07107
G1 X40.379 Y25.384 E0.14942
G1 X42.097 Y25.102 E0.20732
G1 X56.923 Y25.027 E0.70044
G1 X58.826 Y25.494 E0.76562
G1 X60.853 Y26.546 E0.84157
G1 X62.312 Y28.107 E0.91264
G1 X63.519 Y30.13 E0.99099
G1 X63.801 Y31.848 E1.0489
G1 X63.876 Y65.18 E2.15753
G1 X63.41 Y67.076 E2.22246
G1 X62.357 Y69.104 E2.29847
G1 X60.796 Y70.563 E2.36953
G1 X59.444 Y71.369 E2.42188
G1 X59.036 Y72.812 E2.47176
G1 X58.048 Y74.693 E2.54243
G1 X55.745 Y76.929 E2.64919
G1 X54.094 Y78.149 E2.71747
G1 X50.614 Y79.124 E2.83767
G1 X48.33 Y79.285 E2.91383
G1 X44.9 Y78.28 E3.0327
G1 X43.084 Y77.301 E3.10132
G1 X40.664 Y74.881 E3.21515
G1 X39.532 Y73.119 E3.28481
G1 X39.241 Y72.127 E3.31919
G1 X22.223 Y72.127 E3.88521
G1 X20.327 Y71.661 E3.95015
G1 X18.299 Y70.608 E4.02615
G1 X16.834 Y69.041 E4.0975
G1 X15.75 Y67.222 E4.16793
G1 X15.603 Y66.834 E4.18173
G1 X15.331 Y65.058 E4.24149
G1 X15.276 Y56.487 E4.52657
G1 X15.745 Y54.575 E4.59205
G1 X16.795 Y52.55 E4.66791
G1 X18.356 Y51.091 E4.73898
G1 X20.379 Y49.884 E4.81733
G1 X22.097 Y49.602 E4.87524
G1 X35.276 Y49.539 E5.31358
G1 X35.276 Y31.974 E5.89779
G1 X35.742 Y30.078 E5.96273
G1 X36.795 Y28.05 E6.03873
G0 F9000 X37.118 Y28.295
G1 F1800 X38.595 Y26.915 E6.10596
G1 X40.519 Y25.767 E6.18048
G1 X42.162 Y25.497 E6.23586
G1 X56.878 Y25.427 E6.72532
G1 X58.683 Y25.87 E6.78714
G1 X60.608 Y26.869 E6.85927
G1 X61.988 Y28.346 E6.9265
G1 X63.136 Y30.27 E7.00102
G1 X63.406 Y31.913 E7.0564
G1 X63.476 Y65.134 E8.16134
G1 X63.034 Y66.933 E8.22295
G1 X62.034 Y68.859 E8.29513
G1 X60.557 Y70.239 E8.36236
G1 X59.102 Y71.107 E8.41871
G1 X58.662 Y72.664 E8.47253
G1 X57.724 Y74.449 E8.53959
G1 X55.507 Y76.607 E8.6425
G1 X53.914 Y77.784 E8.70837
G1 X50.546 Y78.728 E8.82471
G1 X48.374 Y78.881 E8.89713
G1 X45.053 Y77.908 E9.01223
G1 X43.326 Y76.977 E9.07749
G1 X40.978 Y74.629 E9.18793
G1 X39.9 Y72.951 E9.25426
G1 X39.541 Y71.727 E9.29669
G1 X22.269 Y71.727 E9.87116
G1 X20.47 Y71.285 E9.93277
G1 X18.544 Y70.285 E10.00495
G1 X17.158 Y68.802 E10.07246
G1 X16.094 Y67.017 E10.14158
G1 X15.992 Y66.733 E10.15162
G1 X15.731 Y65.055 E10.2081
G1 X15.676 Y56.532 E10.49158
G1 X16.121 Y54.718 E10.5537
G1 X17.118 Y52.795 E10.62575
G1 X18.595 Y51.415 E10.69298
G1 X20.519 Y50.267 E10.7675
G1 X22.162 Y49.997 E10.82288
G1 X35.676 Y49.937 E11.27236
G1 X35.676 Y32.02 E11.86828
G1 X36.118 Y30.221 E11.9299
G1 X37.118 Y28.295 E12.00207
G0 F9000 X37.441 Y28.54
G1 F1800 X38.837 Y27.236 E12.06561
G1 X40.657 Y26.15 E12.1361
G1 X42.227 Y25.892 E12.18902
G1 X56.833 Y25.827 E12.67482
G1 X58.54 Y26.246 E12.73328
G1 X60.363 Y27.192 E12.80159
G1 X61.667 Y28.588 E12.86513
G1 X62.753 Y30.408 E12.93562
G1 X63.011 Y31.978 E12.98854
G1 X63.076 Y65.087 E14.08975
G1 X62.657 Y66.791 E14.14812
G1 X61.711 Y68.614 E14.21643
G1 X60.315 Y69.918 E14.27996
G1 X58.76 Y70.846 E14.34019
G1 X58.288 Y72.516 E14.39791
G1 X57.4 Y74.206 E14.46141
G1 X55.228 Y76.32 E14.56222
G1 X53.736 Y77.419 E14.62385
G1 X50.478 Y78.332 E14.73639
G1 X48.418 Y78.477 E14.80507
G1 X45.206 Y77.536 E14.9164
G1 X43.568 Y76.653 E14.97829
G1 X41.292 Y74.377 E15.08534
G1 X40.268 Y72.783 E15.14836
G1 X39.841 Y71.327 E15.19882
G1 X22.316 Y71.327 E15.78171
G1 X20.612 Y70.908 E15.84007
G1 X18.789 Y69.962 E15.90838
G1 X17.482 Y68.563 E15.97206
G1 X16.438 Y66.812 E16.03986
G1 X16.387 Y66.671 E16.04485
G1 X16.131 Y65.052 E16.09937
G1 X16.076 Y56.577 E16.38125
G1 X16.497 Y54.861 E16.44002
G1 X17.441 Y53.04 E16.50824
G1 X18.837 Y51.736 E16.57178
G1 X20.657 Y50.65 E16.64227
G1 X22.227 Y50.392 E16.69519
G1 X36.076 Y50.335 E17.15581
G1 X36.076 Y32.067 E17.76341
G1 X36.495 Y30.363 E17.82177
G1 X37.441 Y28.54 E17.89008
G0 F9000 X37.764 Y28.785
G1 F1800 X39.079 Y27.557 E17.94993
G1 X40.795 Y26.533 E18.01639
G1 X42.292 Y26.287 E18.06685
G1 X56.788 Y26.227 E18.54899
G1 X58.397 Y26.622 E18.6041
G1 X60.118 Y27.515 E18.66858
G1 X61.346 Y28.83 E18.72843
G1 X62.37 Y30.546 E18.79489
G1 X62.616 Y32.043 E18.84535
G1 X62.676 Y65.041 E19.94287
G1 X62.281 Y66.648 E19.99791
G1 X61.388 Y68.369 E20.0624
G1 X60.073 Y69.597 E20.12224
G1 X58.558 Y70.501 E20.18092
G1 X58.426 Y70.555 E20.18566
G1 X57.914 Y72.368 E20.24832
G1 X57.076 Y73.963 E20.30824
G1 X54.949 Y76.033 E20.40696
G1 X53.558 Y77.054 E20.46435
G1 X50.41 Y77.936 E20.57309
G1 X48.462 Y78.073 E20.63804
G1 X45.359 Y77.164 E20.74558
G1 X43.81 Y76.329 E20.80411
G1 X41.606 Y74.125 E20.90778
G1 X40.636 Y72.615 E20.96747
G1 X40.141 Y70.927 E21.02598
G1 X22.362 Y70.927 E21.61731
G1 X20.755 Y70.532 E21.67235
G1 X19.034 Y69.639 E21.73684
G1 X17.806 Y68.324 E21.79668
G1 X16.782 Y66.607 E21.86317
G1 X16.531 Y65.049 E21.91566
G1 X16.476 Y56.622 E22.19595
G1 X16.873 Y55.004 E22.25136
G1 X17.764 Y53.285 E22.31576
G1 X19.079 Y52.057 E22.3756
G1 X20.795 Y51.033 E22.44206
G1 X22.292 Y50.787 E22.49252
G1 X36.476 Y50.734 E22.96429
G1 X36.476 Y32.113 E23.58362
G1 X36.871 Y30.506 E23.63866
G1 X37.764 Y28.785 E23.70315
G0 F9000 X38.087 Y29.03
G1 F1800 X39.321 Y27.878 E23.7593
G1 X40.933 Y26.916 E23.82174
G1 X42.357 Y26.682 E23.86973
G1 X56.743 Y26.627 E24.34822
G1 X58.254 Y26.998 E24.39997
G1 X59.873 Y27.838 E24.46063
G1 X61.025 Y29.072 E24.51678
G1 X61.987 Y30.684 E24.57922
G1 X62.221 Y32.108 E24.62721
G1 X62.276 Y64.995 E25.72104
G1 X61.905 Y66.505 E25.77276
G1 X61.065 Y68.124 E25.83342
G1 X59.831 Y69.276 E25.88957
G1 X58.353 Y70.158 E25.94682
G1 X58.099 Y70.239 E25.95568
G1 X57.54 Y72.22 E26.02415
G1 X56.752 Y73.72 E26.0805
G1 X54.67 Y75.746 E26.17712
G1 X53.38 Y76.689 E26.23027
G1 X50.342 Y77.54 E26.33521
G1 X48.506 Y77.669 E26.39642
G1 X45.512 Y76.792 E26.50019
G1 X44.052 Y76.005 E26.55535
G1 X41.92 Y73.873 E26.65563
G1 X41.004 Y72.447 E26.71201
G1 X40.441 Y70.527 E26.77855
G1 X22.408 Y70.527 E27.37833
G1 X20.898 Y70.156 E27.43005
G1 X19.279 Y69.316 E27.49071
G1 X18.127 Y68.082 E27.54686
G1 X17.165 Y66.47 E27.6093
G1 X16.931 Y65.046 E27.6573
G1 X16.876 Y56.667 E27.93599
G1 X17.249 Y55.147 E27.98805
G1 X18.087 Y53.53 E28.04862
G1 X19.321 Y52.378 E28.10477
G1 X20.933 Y51.416 E28.16721
G1 X22.357 Y51.182 E28.2152
G1 X36.876 Y51.133 E28.69811
G1 X36.876 Y32.159 E29.32919
G1 X37.247 Y30.649 E29.3809
G1 X38.087 Y29.03 E29.44157
G0 F9000 X38.41 Y29.275
G1 F1800 X39.563 Y28.199 E29.49402
G1 X41.071 Y27.299 E29.55243
G1 X42.422 Y27.077 E29.59797
G1 X56.697 Y27.027 E30.07276
G1 X58.112 Y27.375 E30.12123
G1 X59.628 Y28.161 E30.17802
G1 X60.704 Y29.314 E30.23048
G1 X61.604 Y30.822 E30.28889
G1 X61.826 Y32.173 E30.33442
G1 X61.876 Y64.948 E31.42453
G1 X61.528 Y66.363 E31.47299
G1 X60.742 Y67.879 E31.52979
G1 X59.589 Y68.955 E31.58224
G1 X58.148 Y69.815 E31.63806
G1 X57.777 Y69.905 E31.65075
G1 X57.166 Y72.072 E31.72564
G1 X56.428 Y73.477 E31.77842
G1 X54.391 Y75.459 E31.87295
G1 X53.204 Y76.323 E31.92178
G1 X50.274 Y77.144 E32.02299
G1 X48.55 Y77.265 E32.08047
G1 X45.665 Y76.42 E32.18046
G1 X44.294 Y75.681 E32.23226
G1 X42.234 Y73.621 E32.32916
G1 X41.372 Y72.279 E32.38221
G1 X40.741 Y70.127 E32.45679
G1 X22.455 Y70.127 E33.06499
G1 X21.04 Y69.779 E33.11346
G1 X19.524 Y68.993 E33.17025
G1 X18.448 Y67.84 E33.22271
G1 X17.548 Y66.332 E33.28112
G1 X17.326 Y64.981 E33.32665
G1 X17.276 Y56.712 E33.60169
G1 X17.625 Y55.29 E33.65038
G1 X18.41 Y53.775 E33.70714
G1 X19.563 Y52.699 E33.75959
G1 X21.071 Y51.799 E33.818
G1 X22.422 Y51.577 E33.86354
G1 X37.276 Y51.532 E34.35759
G1 X37.276 Y32.206 E35.00037
G1 X37.624 Y30.791 E35.04884
G1 X38.41 Y29.275 E35.10563
G0 F9000 X38.733 Y29.52
G1 F1800 X39.805 Y28.52 E35.15439
G1 X41.209 Y27.682 E35.20878
G1 X42.487 Y27.472 E35.25185
G1 X56.651 Y27.427 E35.72295
G1 X57.969 Y27.751 E35.76809
G1 X59.383 Y28.484 E35.82107
G1 X60.383 Y29.556 E35.86983
G1 X61.221 Y30.96 E35.92421
G1 X61.431 Y32.238 E35.96729
G1 X61.476 Y64.902 E37.0537
G1 X61.152 Y66.22 E37.09884
G1 X60.419 Y67.634 E37.15181
G1 X59.347 Y68.634 E37.20057
G1 X57.943 Y69.472 E37.25495
G1 X57.461 Y69.551 E37.2712
G1 X56.792 Y71.924 E37.3532
G1 X56.104 Y73.234 E37.40242
G1 X54.112 Y75.172 E37.49485
G1 X53.027 Y75.957 E37.53939
G1 X50.206 Y76.748 E37.63684
G1 X48.594 Y76.861 E37.69059
G1 X45.818 Y76.048 E37.78679
G1 X44.536 Y75.357 E37.83523
G1 X42.548 Y73.369 E37.92874
G1 X41.739 Y72.11 E37.97852
G1 X41.041 Y69.727 E38.06111
G1 X22.501 Y69.727 E38.67775
G1 X21.183 Y69.403 E38.72289
G1 X19.769 Y68.67 E38.77586
G1 X18.769 Y67.598 E38.82462
G1 X17.931 Y66.194 E38.87901
G1 X17.721 Y64.916 E38.92208
G1 X17.676 Y56.757 E39.19346
G1 X18.001 Y55.433 E39.2388
G1 X18.733 Y54.02 E39.29173
G1 X19.805 Y53.02 E39.34049
G1 X21.209 Y52.182 E39.39487
G1 X22.487 Y51.972 E39.43795
G1 X37.676 Y51.931 E39.94314
G1 X37.676 Y32.252 E40.59766
G1 X38 Y30.934 E40.64281
G1 X38.733 Y29.52 E40.69578
G0 F9000 X39.055 Y29.767
G1 F1800 X40.05 Y28.839 E40.74103
G1 X41.347 Y28.065 E40.79127
G1 X42.552 Y27.867 E40.83188
G1 X56.605 Y27.827 E41.29929
G1 X57.826 Y28.127 E41.34111
G1 X59.136 Y28.806 E41.39019
G1 X60.064 Y29.801 E41.43544
G1 X60.838 Y31.098 E41.48567
G1 X61.036 Y32.303 E41.52629
G1 X61.076 Y64.856 E42.60901
G1 X60.776 Y66.077 E42.65083
G1 X60.097 Y67.387 E42.6999
G1 X59.102 Y68.315 E42.74516
G1 X57.805 Y69.089 E42.79539
G1 X57.145 Y69.197 E42.81764
G1 X56.418 Y71.776 E42.90676
G1 X55.779 Y72.993 E42.95247
G1 X53.877 Y74.848 E43.04084
G1 X52.849 Y75.592 E43.08305
G1 X50.138 Y76.352 E43.17669
G1 X48.638 Y76.457 E43.2267
G1 X45.971 Y75.676 E43.31913
G1 X44.778 Y75.033 E43.36421
G1 X42.862 Y73.117 E43.45433
G1 X42.107 Y71.942 E43.50079
G1 X41.391 Y69.499 E43.58546
G1 X41.37 Y69.327 E43.59122
G1 X22.547 Y69.327 E44.21728
G1 X21.326 Y69.027 E44.25909
G1 X20.016 Y68.348 E44.30817
G1 X19.088 Y67.353 E44.35342
G1 X18.314 Y66.056 E44.40366
G1 X18.116 Y64.851 E44.44428
G1 X18.076 Y56.802 E44.71199
G1 X18.377 Y55.576 E44.75398
G1 X19.055 Y54.267 E44.80301
G1 X20.05 Y53.339 E44.84826
G1 X21.347 Y52.565 E44.8985
G1 X22.552 Y52.367 E44.93911
G1 X38.076 Y52.33 E45.45545
G1 X38.076 Y32.298 E46.12171
G1 X38.376 Y31.077 E46.16353
G1 X39.055 Y29.767 E46.21261
G0 F9000 X39.377 Y30.014
G1 F1800 X40.292 Y29.161 E46.25421
G1 X41.487 Y28.448 E46.3005
G1 X42.617 Y28.262 E46.33859
G1 X56.559 Y28.227 E46.8023
G1 X57.683 Y28.503 E46.84079
G1 X58.889 Y29.128 E46.88597
G1 X59.742 Y30.043 E46.92758
G1 X60.455 Y31.238 E46.97386
G1 X60.641 Y32.368 E47.01195
G1 X60.676 Y64.81 E48.09098
G1 X60.4 Y65.934 E48.12947
G1 X59.775 Y67.14 E48.17465
G1 X58.86 Y67.993 E48.21626
G1 X57.665 Y68.706 E48.26254
G1 X56.781 Y68.851 E48.29234
G1 X56.772 Y69.047 E48.29886
G1 X56.045 Y71.627 E48.38801
G1 X55.455 Y72.75 E48.43021
G1 X53.642 Y74.524 E48.51457
G1 X52.671 Y75.227 E48.55444
G1 X50.07 Y75.956 E48.64429
G1 X48.682 Y76.053 E48.69056
G1 X46.124 Y75.304 E48.77922
G1 X45.02 Y74.709 E48.82093
G1 X43.176 Y72.865 E48.90766
G1 X42.475 Y71.774 E48.9508
G1 X41.775 Y69.386 E49.03356
G1 X41.743 Y68.927 E49.04887
G1 X22.593 Y68.927 E49.6858
G1 X21.469 Y68.651 E49.72429
G1 X20.263 Y68.026 E49.76947
G1 X19.41 Y67.111 E49.81108
G1 X18.697 Y65.916 E49.85736
G1 X18.511 Y64.786 E49.89545
G1 X18.476 Y56.847 E50.15951
G1 X18.753 Y55.719 E50.19814
G1 X19.377 Y54.514 E50.24327
G1 X20.292 Y53.661 E50.28488
G1 X21.487 Y52.948 E50.33116
G1 X22.617 Y52.762 E50.36925
G1 X38.476 Y52.729 E50.89672
G1 X38.476 Y32.344 E51.57473
G1 X38.752 Y31.22 E51.61323
G1 X39.377 Y30.014 E51.6584
G0 F9000 X39.699 Y30.261
G1 F1800 X40.534 Y29.483 E51.69636
G1 X41.627 Y28.831 E51.73869
G1 X42.682 Y28.657 E51.77426
G1 X56.512 Y28.627 E52.23425
G1 X57.541 Y28.88 E52.26949
G1 X58.642 Y29.45 E52.31073
G1 X59.42 Y30.285 E52.34868
G1 X60.072 Y31.378 E52.39101
G1 X60.246 Y32.433 E52.42658
G1 X60.276 Y64.763 E53.50188
G1 X60.023 Y65.792 E53.53712
G1 X59.453 Y66.893 E53.57836
G1 X58.618 Y67.671 E53.61632
G1 X57.525 Y68.323 E53.65865
G1 X56.352 Y68.516 E53.69819
G1 X56.387 Y68.939 E53.7123
G1 X55.672 Y71.478 E53.80003
G1 X55.13 Y72.509 E53.83878
G1 X53.407 Y74.2 E53.91907
G1 X52.493 Y74.862 E53.95661
G1 X50.002 Y75.56 E54.04265
G1 X48.726 Y75.649 E54.08519
G1 X46.277 Y74.932 E54.17007
G1 X45.262 Y74.385 E54.20842
G1 X43.487 Y72.61 E54.29191
G1 X42.843 Y71.608 E54.33152
G1 X42.171 Y69.315 E54.411
G1 X42.116 Y68.527 E54.43727
G1 X22.64 Y68.527 E55.08504
G1 X21.611 Y68.274 E55.12029
G1 X20.51 Y67.704 E55.16152
G1 X19.732 Y66.869 E55.19948
G1 X19.08 Y65.776 E55.24181
G1 X18.906 Y64.721 E55.27737
G1 X18.876 Y56.892 E55.53777
G1 X19.129 Y55.862 E55.57305
G1 X19.699 Y54.761 E55.61428
G1 X20.534 Y53.983 E55.65224
G1 X21.627 Y53.331 E55.69457
G1 X22.682 Y53.157 E55.73013
G1 X38.876 Y53.128 E56.26875
G1 X38.876 Y32.391 E56.95847
G1 X39.129 Y31.362 E56.99371
G1 X39.699 Y30.261 E57.03495
G0 F9000 X40.021 Y30.508
G1 F1800 X40.776 Y29.805 E57.06926
G1 X41.767 Y29.214 E57.10763
G1 X42.747 Y29.052 E57.14067
G1 X56.466 Y29.027 E57.59697
G1 X57.398 Y29.256 E57.62889
G1 X58.395 Y29.772 E57.66623
G1 X59.098 Y30.527 E57.70054
G1 X59.689 Y31.518 E57.73892
G1 X59.851 Y32.498 E57.77195
G1 X59.876 Y64.717 E58.84356
G1 X59.647 Y65.649 E58.87548
G1 X59.131 Y66.646 E58.91282
G1 X58.376 Y67.349 E58.94713
G1 X57.385 Y67.94 E58.98551
G1 X56.405 Y68.102 E59.01855
G1 X55.917 Y68.113 E59.03478
G1 X55.982 Y68.901 E59.06108
G1 X55.299 Y71.329 E59.14497
G1 X54.806 Y72.267 E59.18021
G1 X53.172 Y73.876 E59.25649
G1 X52.315 Y74.497 E59.29169
G1 X49.934 Y75.164 E59.37393
G1 X48.77 Y75.245 E59.41274
G1 X46.43 Y74.56 E59.49383
G1 X45.504 Y74.061 E59.52882
G1 X43.798 Y72.355 E59.60906
G1 X43.211 Y71.442 E59.64516
G1 X42.567 Y69.244 E59.72134
G1 X42.489 Y68.127 E59.75859
G1 X22.686 Y68.127 E60.41724
G1 X21.754 Y67.898 E60.44916
G1 X20.757 Y67.382 E60.48649
G1 X20.054 Y66.627 E60.52081
G1 X19.463 Y65.636 E60.55918
G1 X19.301 Y64.656 E60.59222
G1 X19.276 Y56.937 E60.84896
G1 X19.505 Y56.005 E60.88088
G1 X20.021 Y55.008 E60.91822
G1 X20.776 Y54.305 E60.95253
G1 X21.767 Y53.714 E60.9909
G1 X22.747 Y53.552 E61.02394
G1 X39.276 Y53.527 E61.5737
G1 X39.276 Y32.437 E62.27516
G1 X39.505 Y31.505 E62.30708
G1 X40.021 Y30.508 E62.34441
G0 F9000 X40.344 Y30.753
G1 F1800 X41.015 Y30.129 E62.37489
G1 X41.907 Y29.597 E62.40943
G1 X42.812 Y29.447 E62.43995
G1 X56.42 Y29.427 E62.89255
G1 X57.255 Y29.632 E62.92115
G1 X58.15 Y30.095 E62.95466
G1 X58.774 Y30.766 E62.98514
G1 X59.306 Y31.658 E63.01968
G1 X59.456 Y32.563 E63.05019
G1 X59.476 Y64.671 E64.11811
G1 X59.271 Y65.506 E64.14671
G1 X58.808 Y66.401 E64.18022
G1 X58.137 Y67.025 E64.2107
G1 X57.245 Y67.557 E64.24524
G1 X56.34 Y67.707 E64.27575
G1 X55.483 Y67.719 E64.30426
G1 X55.577 Y68.863 E64.34244
G1 X54.926 Y71.18 E64.42249
G1 X54.48 Y72.027 E64.45432
G1 X52.937 Y73.552 E64.52648
G1 X52.137 Y74.132 E64.55935
G1 X49.866 Y74.768 E64.63779
G1 X48.814 Y74.841 E64.67286
G1 X46.583 Y74.188 E64.75018
G1 X45.746 Y73.737 E64.7818
G1 X44.109 Y72.1 E64.8588
G1 X43.58 Y71.277 E64.89134
G1 X42.963 Y69.172 E64.9643
G1 X42.888 Y68.099 E65.00007
G1 X42.996 Y67.727 E65.01296
G1 X22.732 Y67.727 E65.68694
G1 X21.897 Y67.522 E65.71554
G1 X21.002 Y67.059 E65.74905
G1 X20.378 Y66.388 E65.77953
G1 X19.846 Y65.496 E65.81407
G1 X19.696 Y64.591 E65.84458
G1 X19.676 Y56.983 E66.09763
G1 X19.881 Y56.148 E66.12622
G1 X20.344 Y55.253 E66.15974
G1 X21.015 Y54.629 E66.19021
G1 X21.907 Y54.097 E66.22476
G1 X22.812 Y53.947 E66.25527
G1 X39.676 Y53.927 E66.81617
G1 X39.676 Y32.483 E67.5294
